usr/share/icons/biglinux-icons-material/scalable/apps/desktop-environment-lxde.svg

<svg width="24" height="24" viewBox="0 0 24 24" fill="none" xmlns="http://www.w3.org/2000/svg">
<path fill-rule="evenodd" clip-rule="evenodd" d="M9.59604 1.11359C9.71588 1.11486 9.83043 1.0996 9.93969 1.06779C11.3755 0.973736 12.8111 0.977551 14.2467 1.07924C15.5484 1.18066 16.8085 1.46308 18.0269 1.9265C20.0525 2.76044 21.4386 4.20689 22.185 6.26585C22.6119 7.50549 22.8639 8.78021 22.9411 10.09C23.0478 11.7347 23.0096 13.3758 22.8265 15.0133C22.6895 16.1642 22.3916 17.271 21.933 18.3336C21.0824 20.1761 19.704 21.447 17.7978 22.1463C16.2531 22.6682 14.6647 22.943 13.0325 22.9706C11.1966 23.0661 9.37913 22.9287 7.57997 22.5585C4.26839 21.8208 2.22559 19.8018 1.45158 16.5017C1.12311 15.0161 0.974199 13.5124 1.00483 11.9906C0.968176 10.3724 1.14 8.77709 1.52031 7.20471C2.33171 4.11908 4.2905 2.20701 7.39669 1.46852C8.12048 1.29157 8.8536 1.17326 9.59604 1.11359Z" fill="url(#paint0_radial_4_229)"/>
<path d="M15.4901 9.17585C14.5074 8.03637 13.625 7.29939 12.3173 9.21931C11.5368 10.3588 6.86743 16.9028 6.0114 17.944C5.76007 18.2464 5.61456 18.4542 5.42559 18.5808C5.42559 18.1651 8.65129 12.9061 9.55079 11.3811C10.6374 9.5519 10.6033 9.65772 10.473 9.65772C10.2897 9.65772 9.9155 9.93739 9.3467 10.561C8.30926 11.7005 5.23662 15.9409 5.02309 15.8767C5.09679 15.5687 7.50236 11.7723 8.5946 10.2019C9.53378 8.84893 9.17474 8.74311 8.63618 8.87728C6.33831 9.44418 3.59071 10.8048 3.5 10.7537C3.53401 10.6838 12.7595 4.00944 13.9916 3.88283C14.1352 3.86582 14.4375 3.60315 14.9761 3.38206C15.5619 3.14585 15.9568 2.94932 16.0532 3.01168C15.6242 3.62961 15.4013 3.75433 15.3956 3.95275C15.3899 4.27777 15.2784 4.80311 15.1537 4.97318C17.5385 6.60776 18.4701 12.1786 19.1485 16.6628C19.3091 17.7248 19.4622 18.526 19.5 19.0003C19.2997 18.4674 17.393 11.3849 15.4863 9.17585" fill="white"/>
<defs>
<radialGradient id="paint0_radial_4_229" cx="0" cy="0" r="1" gradientUnits="userSpaceOnUse" gradientTransform="translate(12 1) rotate(90) scale(22)">
<stop stop-color="#6196DD"/>
<stop offset="1" stop-color="#184480"/>
</radialGradient>
</defs>
</svg>

<svg xmlns="http://www.w3.org/2000/svg" width="24" height="24" fill="none"><path fill="url(#a)" fill-rule="evenodd" d="M9.596 1.114c.12 0 .234-.014.344-.046a31.627 31.627 0 0 1 4.307.011c1.301.102 2.561.384 3.78.848 2.025.833 3.412 2.28 4.158 4.339.427 1.24.679 2.514.756 3.824a27.94 27.94 0 0 1-.114 4.923 11.88 11.88 0 0 1-.894 3.32c-.85 1.843-2.229 3.114-4.135 3.813a15.624 15.624 0 0 1-4.765.825 21.423 21.423 0 0 1-5.453-.413c-3.312-.737-5.354-2.756-6.128-6.056a19.047 19.047 0 0 1-.447-4.511 18.491 18.491 0 0 1 .515-4.786c.812-3.086 2.77-4.998 5.877-5.736a13.953 13.953 0 0 1 2.199-.355Z" clip-rule="evenodd"/><path fill="#fff" d="M15.49 9.176c-.983-1.14-1.865-1.877-3.173.043-.78 1.14-5.45 7.684-6.306 8.725-.25.302-.396.51-.585.637 0-.416 3.225-5.675 4.125-7.2 1.086-1.83 1.052-1.723.922-1.723-.183 0-.558.28-1.126.903-1.038 1.14-4.11 5.38-4.324 5.316.074-.308 2.48-4.105 3.572-5.675.939-1.353.58-1.459.041-1.325-2.298.567-5.045 1.928-5.136 1.877.034-.07 9.26-6.745 10.492-6.871.143-.017.445-.28.984-.5.586-.237.98-.434 1.077-.371-.429.618-.652.742-.657.94-.006.326-.118.851-.242 1.021 2.384 1.635 3.316 7.206 3.994 11.69.161 1.062.314 1.863.352 2.337-.2-.533-2.107-7.615-4.014-9.824"/><defs><radialGradient id="a" cx="0" cy="0" r="1" gradientTransform="matrix(0 22 -22 0 12 1)" gradientUnits="userSpaceOnUse"><stop stop-color="#6196DD"/><stop offset="1" stop-color="#184480"/></radialGradient></defs></svg>
